X: 16021
T: Green Blanket, The
R: jig
M: 6/8
K: Dmajor
DFA AFA|AFA AFD|DBG FAd|BGE ~E2A|
DFA AFA|AFA ~B2A|AdB AFD|1 AFD D2F:|2 AFD ~d2e||
fdB ABd|edA d2.B|.G.B.G FAd|BGE ede|
fdB ABd|edA d2A|B/c/dB AFD|1 AFD D2e:|2 AFD D2e||
faf g2e|fdB AFD|DBG FAd|BGe ede|
faf g2e|fdB AFd|AdB AFD|1 AFD D2e:|2 AFD D2E||

